X:27
T:Pretty Maggie Morrissey
T:McNamara's
R:hornpipe
S:Fiona Lyons, J\"orgen Fischer
H:Similar to "The Fairie's Hornpipe", #12
H:Bar 4 of 2nd part, version 2 also played | dGGB A2Bc |
Z:id:hn-hornpipe-27
M:C|
K:G
Bc|dBGB cAFA|~G3F GABc|dg~g2 eg~g2|dBGB A2Bc|
dBGB cAFA|~G3F GABc|dg~g2 ecAF|G2GF G2:|
|:Bc|dg~g2 eg~g2|dg~g2 edBc|dg~g2 eg~g2|dBGB A2Bc|
dBGB cAFA|~G3F GABc|dg~g2 ecAF|G2GF G2:|
P:version 2
z2|dBGD cAFD|~G3D GABc|dg~g2 effe|dGGB A2Bc|
dB~B2 cBBA|G2GD GABc|d2g2 ecAF|GBAF G2:|
|:z2|dg~g2 effe|dg~g2 effe|dg~g2 effe|d^c=cB A2Bc|
dB~B2 cBBA|~G3D GABc|d2~g2 ecAF|GBAF G2:|
<end>
<start>
